images/3234015.svg

<?xml version="1.0" encoding="UTF-8"?>
<svg xmlns="http://www.w3.org/2000/svg" xmlns:xlink="http://www.w3.org/1999/xlink" width="300pt" height="300pt" viewBox="0 0 300 300" version="1.1">
<defs>
<g>
<symbol overflow="visible" id="glyph0-0">
<path style="stroke:none;" d="M 0.640625 2.296875 L 0.640625 -9.171875 L 7.140625 -9.171875 L 7.140625 2.296875 Z M 1.375 1.578125 L 6.421875 1.578125 L 6.421875 -8.4375 L 1.375 -8.4375 Z M 1.375 1.578125 "/>
</symbol>
<symbol overflow="visible" id="glyph0-1">
<path style="stroke:none;" d="M 1.28125 -9.484375 L 3 -9.484375 L 7.203125 -1.546875 L 7.203125 -9.484375 L 8.453125 -9.484375 L 8.453125 0 L 6.71875 0 L 2.515625 -7.921875 L 2.515625 0 L 1.28125 0 Z M 1.28125 -9.484375 "/>
</symbol>
<symbol overflow="visible" id="glyph0-2">
<path style="stroke:none;" d="M 5.125 -8.609375 C 4.1875 -8.609375 3.441406 -8.257812 2.890625 -7.5625 C 2.347656 -6.875 2.078125 -5.929688 2.078125 -4.734375 C 2.078125 -3.535156 2.347656 -2.585938 2.890625 -1.890625 C 3.441406 -1.203125 4.1875 -0.859375 5.125 -0.859375 C 6.050781 -0.859375 6.785156 -1.203125 7.328125 -1.890625 C 7.878906 -2.585938 8.15625 -3.535156 8.15625 -4.734375 C 8.15625 -5.929688 7.878906 -6.875 7.328125 -7.5625 C 6.785156 -8.257812 6.050781 -8.609375 5.125 -8.609375 Z M 5.125 -9.65625 C 6.445312 -9.65625 7.503906 -9.207031 8.296875 -8.3125 C 9.097656 -7.414062 9.5 -6.222656 9.5 -4.734375 C 9.5 -3.234375 9.097656 -2.035156 8.296875 -1.140625 C 7.503906 -0.253906 6.445312 0.1875 5.125 0.1875 C 3.789062 0.1875 2.722656 -0.253906 1.921875 -1.140625 C 1.128906 -2.035156 0.734375 -3.234375 0.734375 -4.734375 C 0.734375 -6.222656 1.128906 -7.414062 1.921875 -8.3125 C 2.722656 -9.207031 3.789062 -9.65625 5.125 -9.65625 Z M 5.125 -9.65625 "/>
</symbol>
<symbol overflow="visible" id="glyph0-3">
<path style="stroke:none;" d="M 1.28125 -9.484375 L 6.71875 -9.484375 L 6.71875 -8.390625 L 2.5625 -8.390625 L 2.5625 -5.609375 L 6.3125 -5.609375 L 6.3125 -4.53125 L 2.5625 -4.53125 L 2.5625 0 L 1.28125 0 Z M 1.28125 -9.484375 "/>
</symbol>
</g>
</defs>
<g id="surface36981">
<rect x="0" y="0" width="300" height="300" style="fill:rgb(100%,100%,100%);fill-opacity:1;stroke:none;"/>
<path style="fill:none;stroke-width:1.2;stroke-linecap:butt;stroke-linejoin:miter;stroke:rgb(0%,0%,0%);stroke-opacity:1;stroke-miterlimit:10;" d="M 212.988281 255.960938 L 190.0625 232.761719 "/>
<path style="fill:none;stroke-width:1.2;stroke-linecap:butt;stroke-linejoin:miter;stroke:rgb(0%,0%,0%);stroke-opacity:1;stroke-miterlimit:10;" d="M 216.152344 248.246094 L 197.8125 229.6875 "/>
<path style="fill:none;stroke-width:1.2;stroke-linecap:butt;stroke-linejoin:miter;stroke:rgb(0%,0%,0%);stroke-opacity:1;stroke-miterlimit:10;" d="M 244.542969 247.703125 L 212.988281 255.960938 "/>
<path style="fill:none;stroke-width:1.2;stroke-linecap:butt;stroke-linejoin:miter;stroke:rgb(0%,0%,0%);stroke-opacity:1;stroke-miterlimit:10;" d="M 190.0625 232.761719 L 198.6875 201.308594 "/>
<path style="fill:none;stroke-width:1.2;stroke-linecap:butt;stroke-linejoin:miter;stroke:rgb(0%,0%,0%);stroke-opacity:1;stroke-miterlimit:10;" d="M 198.6875 201.308594 L 230.242188 193.054688 "/>
<path style="fill:none;stroke-width:1.2;stroke-linecap:butt;stroke-linejoin:miter;stroke:rgb(0%,0%,0%);stroke-opacity:1;stroke-miterlimit:10;" d="M 203.785156 207.90625 L 229.03125 201.304688 "/>
<path style="fill:none;stroke-width:1.2;stroke-linecap:butt;stroke-linejoin:miter;stroke:rgb(0%,0%,0%);stroke-opacity:1;stroke-miterlimit:10;" d="M 230.242188 193.054688 L 253.167969 216.25 "/>
<path style="fill:none;stroke-width:1.2;stroke-linecap:butt;stroke-linejoin:miter;stroke:rgb(0%,0%,0%);stroke-opacity:1;stroke-miterlimit:10;" d="M 230.242188 193.054688 L 238.871094 161.597656 "/>
<path style="fill:none;stroke-width:1.2;stroke-linecap:butt;stroke-linejoin:miter;stroke:rgb(0%,0%,0%);stroke-opacity:1;stroke-miterlimit:10;" d="M 253.167969 216.25 L 244.542969 247.703125 "/>
<path style="fill:none;stroke-width:1.2;stroke-linecap:butt;stroke-linejoin:miter;stroke:rgb(0%,0%,0%);stroke-opacity:1;stroke-miterlimit:10;" d="M 244.90625 217.367188 L 238.003906 242.53125 "/>
<path style="fill:none;stroke-width:1.2;stroke-linecap:butt;stroke-linejoin:miter;stroke:rgb(0%,0%,0%);stroke-opacity:1;stroke-miterlimit:10;" d="M 238.871094 161.597656 L 227.40625 150 "/>
<path style="fill:none;stroke-width:1.2;stroke-linecap:butt;stroke-linejoin:miter;stroke:rgb(0%,0%,100%);stroke-opacity:1;stroke-miterlimit:10;" d="M 227.40625 150 L 215.941406 138.402344 "/>
<path style="fill:none;stroke-width:1.2;stroke-linecap:butt;stroke-linejoin:miter;stroke:rgb(0%,0%,100%);stroke-opacity:1;stroke-miterlimit:10;" d="M 215.941406 138.402344 L 220.257812 122.675781 "/>
<path style="fill:none;stroke-width:1.2;stroke-linecap:butt;stroke-linejoin:miter;stroke:rgb(0%,0%,0%);stroke-opacity:1;stroke-miterlimit:10;" d="M 220.257812 122.675781 L 224.570312 106.945312 "/>
<path style="fill:none;stroke-width:1.2;stroke-linecap:butt;stroke-linejoin:miter;stroke:rgb(0%,0%,0%);stroke-opacity:1;stroke-miterlimit:10;" d="M 184.390625 146.65625 L 200.167969 142.527344 "/>
<path style="fill:none;stroke-width:1.2;stroke-linecap:butt;stroke-linejoin:miter;stroke:rgb(0%,0%,100%);stroke-opacity:1;stroke-miterlimit:10;" d="M 200.167969 142.527344 L 215.941406 138.402344 "/>
<path style=" stroke:none;fill-rule:nonzero;fill:rgb(100%,100%,100%);fill-opacity:1;" d="M 210.941406 130.402344 L 220.941406 130.402344 L 220.941406 146.402344 L 210.941406 146.402344 Z M 210.941406 130.402344 "/>
<g style="fill:rgb(0%,0%,100%);fill-opacity:1;">
  <use xlink:href="#glyph0-1" x="210.941406" y="142.77832"/>
</g>
<path style="fill:none;stroke-width:1.2;stroke-linecap:butt;stroke-linejoin:miter;stroke:rgb(0%,0%,0%);stroke-opacity:1;stroke-miterlimit:10;" d="M 224.570312 106.945312 L 240.347656 102.820312 "/>
<path style="fill:none;stroke-width:1.2;stroke-linecap:butt;stroke-linejoin:miter;stroke:rgb(0%,0%,100%);stroke-opacity:1;stroke-miterlimit:10;" d="M 240.347656 102.820312 L 256.125 98.691406 "/>
<path style="fill:none;stroke-width:1.2;stroke-linecap:butt;stroke-linejoin:miter;stroke:rgb(0%,0%,0%);stroke-opacity:1;stroke-miterlimit:10;" d="M 225.78125 98.695312 L 238.402344 95.394531 "/>
<path style="fill:none;stroke-width:1.2;stroke-linecap:butt;stroke-linejoin:miter;stroke:rgb(0%,0%,100%);stroke-opacity:1;stroke-miterlimit:10;" d="M 238.402344 95.394531 L 251.023438 92.09375 "/>
<path style="fill:none;stroke-width:1.2;stroke-linecap:butt;stroke-linejoin:miter;stroke:rgb(0%,0%,0%);stroke-opacity:1;stroke-miterlimit:10;" d="M 201.644531 83.75 L 224.570312 106.945312 "/>
<path style="fill:none;stroke-width:1.2;stroke-linecap:butt;stroke-linejoin:miter;stroke:rgb(0%,0%,100%);stroke-opacity:1;stroke-miterlimit:10;" d="M 256.125 98.691406 L 260.4375 82.964844 "/>
<path style="fill:none;stroke-width:1.2;stroke-linecap:butt;stroke-linejoin:miter;stroke:rgb(0%,0%,0%);stroke-opacity:1;stroke-miterlimit:10;" d="M 260.4375 82.964844 L 264.75 67.238281 "/>
<path style=" stroke:none;fill-rule:nonzero;fill:rgb(100%,100%,100%);fill-opacity:1;" d="M 251.125 90.691406 L 261.125 90.691406 L 261.125 106.691406 L 251.125 106.691406 Z M 251.125 90.691406 "/>
<g style="fill:rgb(0%,0%,100%);fill-opacity:1;">
  <use xlink:href="#glyph0-1" x="251.125" y="103.067383"/>
</g>
<path style="fill:none;stroke-width:1.2;stroke-linecap:butt;stroke-linejoin:miter;stroke:rgb(0%,0%,0%);stroke-opacity:1;stroke-miterlimit:10;" d="M 264.75 67.238281 L 253.285156 55.636719 "/>
<path style="fill:none;stroke-width:1.2;stroke-linecap:butt;stroke-linejoin:miter;stroke:rgb(0%,0%,100%);stroke-opacity:1;stroke-miterlimit:10;" d="M 253.285156 55.636719 L 241.824219 44.039062 "/>
<path style="fill:none;stroke-width:1.2;stroke-linecap:butt;stroke-linejoin:miter;stroke:rgb(0%,0%,0%);stroke-opacity:1;stroke-miterlimit:10;" d="M 257 70.3125 L 247.828125 61.03125 "/>
<path style="fill:none;stroke-width:1.2;stroke-linecap:butt;stroke-linejoin:miter;stroke:rgb(0%,0%,100%);stroke-opacity:1;stroke-miterlimit:10;" d="M 247.828125 61.03125 L 238.65625 51.753906 "/>
<path style="fill:none;stroke-width:1.2;stroke-linecap:butt;stroke-linejoin:miter;stroke:rgb(0%,0%,100%);stroke-opacity:1;stroke-miterlimit:10;" d="M 241.824219 44.039062 L 226.046875 48.167969 "/>
<path style="fill:none;stroke-width:1.2;stroke-linecap:butt;stroke-linejoin:miter;stroke:rgb(0%,0%,0%);stroke-opacity:1;stroke-miterlimit:10;" d="M 226.046875 48.167969 L 210.269531 52.296875 "/>
<path style=" stroke:none;fill-rule:nonzero;fill:rgb(100%,100%,100%);fill-opacity:1;" d="M 236.824219 36.039062 L 246.824219 36.039062 L 246.824219 52.039062 L 236.824219 52.039062 Z M 236.824219 36.039062 "/>
<g style="fill:rgb(0%,0%,100%);fill-opacity:1;">
  <use xlink:href="#glyph0-1" x="236.824219" y="48.415039"/>
</g>
<path style="fill:none;stroke-width:1.2;stroke-linecap:butt;stroke-linejoin:miter;stroke:rgb(0%,0%,0%);stroke-opacity:1;stroke-miterlimit:10;" d="M 210.269531 52.296875 L 201.644531 83.75 "/>
<path style="fill:none;stroke-width:1.2;stroke-linecap:butt;stroke-linejoin:miter;stroke:rgb(0%,0%,0%);stroke-opacity:1;stroke-miterlimit:10;" d="M 216.808594 57.46875 L 209.90625 82.632812 "/>
<path style="fill:none;stroke-width:1.2;stroke-linecap:butt;stroke-linejoin:miter;stroke:rgb(0%,0%,0%);stroke-opacity:1;stroke-miterlimit:10;" d="M 201.644531 83.75 L 185.867188 87.875 "/>
<path style="fill:none;stroke-width:1.2;stroke-linecap:butt;stroke-linejoin:miter;stroke:rgb(0%,0%,100%);stroke-opacity:1;stroke-miterlimit:10;" d="M 185.867188 87.875 L 170.089844 92.003906 "/>
<path style="fill:none;stroke-width:1.2;stroke-linecap:butt;stroke-linejoin:miter;stroke:rgb(0%,0%,100%);stroke-opacity:1;stroke-miterlimit:10;" d="M 170.089844 92.003906 L 165.777344 107.730469 "/>
<path style="fill:none;stroke-width:1.2;stroke-linecap:butt;stroke-linejoin:miter;stroke:rgb(0%,0%,0%);stroke-opacity:1;stroke-miterlimit:10;" d="M 165.777344 107.730469 L 161.464844 123.457031 "/>
<path style="fill:none;stroke-width:1.2;stroke-linecap:butt;stroke-linejoin:miter;stroke:rgb(0%,0%,100%);stroke-opacity:1;stroke-miterlimit:10;" d="M 176.628906 97.179688 L 173.175781 109.761719 "/>
<path style="fill:none;stroke-width:1.2;stroke-linecap:butt;stroke-linejoin:miter;stroke:rgb(0%,0%,0%);stroke-opacity:1;stroke-miterlimit:10;" d="M 173.175781 109.761719 L 169.726562 122.34375 "/>
<path style=" stroke:none;fill-rule:nonzero;fill:rgb(100%,100%,100%);fill-opacity:1;" d="M 165.089844 84.003906 L 175.089844 84.003906 L 175.089844 100.003906 L 165.089844 100.003906 Z M 165.089844 84.003906 "/>
<g style="fill:rgb(0%,0%,100%);fill-opacity:1;">
  <use xlink:href="#glyph0-1" x="165.089844" y="96.379883"/>
</g>
<path style="fill:none;stroke-width:1.2;stroke-linecap:butt;stroke-linejoin:miter;stroke:rgb(0%,0%,0%);stroke-opacity:1;stroke-miterlimit:10;" d="M 161.464844 123.457031 L 184.390625 146.65625 "/>
<path style="fill:none;stroke-width:1.2;stroke-linecap:butt;stroke-linejoin:miter;stroke:rgb(0%,0%,0%);stroke-opacity:1;stroke-miterlimit:10;" d="M 161.464844 123.457031 L 129.910156 131.714844 "/>
<path style="fill:none;stroke-width:1.2;stroke-linecap:butt;stroke-linejoin:miter;stroke:rgb(0%,0%,0%);stroke-opacity:1;stroke-miterlimit:10;" d="M 180.6875 145.640625 L 176.375 161.367188 "/>
<path style="fill:none;stroke-width:1.2;stroke-linecap:butt;stroke-linejoin:miter;stroke:rgb(100%,0%,0%);stroke-opacity:1;stroke-miterlimit:10;" d="M 176.375 161.367188 L 172.0625 177.09375 "/>
<path style="fill:none;stroke-width:1.2;stroke-linecap:butt;stroke-linejoin:miter;stroke:rgb(0%,0%,0%);stroke-opacity:1;stroke-miterlimit:10;" d="M 188.089844 147.671875 L 183.777344 163.398438 "/>
<path style="fill:none;stroke-width:1.2;stroke-linecap:butt;stroke-linejoin:miter;stroke:rgb(100%,0%,0%);stroke-opacity:1;stroke-miterlimit:10;" d="M 183.777344 163.398438 L 179.464844 179.125 "/>
<path style=" stroke:none;fill-rule:nonzero;fill:rgb(100%,100%,100%);fill-opacity:1;" d="M 170.761719 170.109375 L 181.761719 170.109375 L 181.761719 186.109375 L 170.761719 186.109375 Z M 170.761719 170.109375 "/>
<g style="fill:rgb(100%,0%,0%);fill-opacity:1;">
  <use xlink:href="#glyph0-2" x="170.761719" y="182.485352"/>
</g>
<path style="fill:none;stroke-width:1.2;stroke-linecap:butt;stroke-linejoin:miter;stroke:rgb(0%,0%,0%);stroke-opacity:1;stroke-miterlimit:10;" d="M 129.910156 131.714844 L 106.984375 108.515625 "/>
<path style="fill:none;stroke-width:1.2;stroke-linecap:butt;stroke-linejoin:miter;stroke:rgb(0%,0%,0%);stroke-opacity:1;stroke-miterlimit:10;" d="M 122.160156 134.789062 L 103.816406 116.230469 "/>
<path style="fill:none;stroke-width:1.2;stroke-linecap:butt;stroke-linejoin:miter;stroke:rgb(0%,0%,0%);stroke-opacity:1;stroke-miterlimit:10;" d="M 121.28125 163.167969 L 129.910156 131.714844 "/>
<path style="fill:none;stroke-width:1.2;stroke-linecap:butt;stroke-linejoin:miter;stroke:rgb(0%,0%,0%);stroke-opacity:1;stroke-miterlimit:10;" d="M 106.984375 108.515625 L 75.429688 116.773438 "/>
<path style="fill:none;stroke-width:1.2;stroke-linecap:butt;stroke-linejoin:miter;stroke:rgb(0%,0%,0%);stroke-opacity:1;stroke-miterlimit:10;" d="M 75.429688 116.773438 L 66.804688 148.226562 "/>
<path style="fill:none;stroke-width:1.2;stroke-linecap:butt;stroke-linejoin:miter;stroke:rgb(0%,0%,0%);stroke-opacity:1;stroke-miterlimit:10;" d="M 81.96875 121.949219 L 75.066406 147.109375 "/>
<path style="fill:none;stroke-width:1.2;stroke-linecap:butt;stroke-linejoin:miter;stroke:rgb(0%,0%,0%);stroke-opacity:1;stroke-miterlimit:10;" d="M 66.804688 148.226562 L 89.730469 171.425781 "/>
<path style="fill:none;stroke-width:1.2;stroke-linecap:butt;stroke-linejoin:miter;stroke:rgb(0%,0%,0%);stroke-opacity:1;stroke-miterlimit:10;" d="M 66.804688 148.226562 L 51.027344 152.355469 "/>
<path style="fill:none;stroke-width:1.2;stroke-linecap:butt;stroke-linejoin:miter;stroke:rgb(20%,80%,80%);stroke-opacity:1;stroke-miterlimit:10;" d="M 51.027344 152.355469 L 35.25 156.480469 "/>
<path style="fill:none;stroke-width:1.2;stroke-linecap:butt;stroke-linejoin:miter;stroke:rgb(0%,0%,0%);stroke-opacity:1;stroke-miterlimit:10;" d="M 89.730469 171.425781 L 121.28125 163.167969 "/>
<path style="fill:none;stroke-width:1.2;stroke-linecap:butt;stroke-linejoin:miter;stroke:rgb(0%,0%,0%);stroke-opacity:1;stroke-miterlimit:10;" d="M 90.941406 163.175781 L 116.183594 156.570312 "/>
<path style=" stroke:none;fill-rule:nonzero;fill:rgb(100%,100%,100%);fill-opacity:1;" d="M 27.25 148.480469 L 35.25 148.480469 L 35.25 164.480469 L 27.25 164.480469 Z M 27.25 148.480469 "/>
<g style="fill:rgb(20%,80%,80%);fill-opacity:1;">
  <use xlink:href="#glyph0-3" x="27.25" y="160.856445"/>
</g>
</g>
</svg>

<svg xmlns="http://www.w3.org/2000/svg" xmlns:xlink="http://www.w3.org/1999/xlink" width="300pt" height="300pt" viewBox="0 0 300 300"><defs><symbol overflow="visible"><path d="M.64 2.297v-11.47h6.5v11.47zm.735-.72h5.047V-8.436H1.375zm0 0"/></symbol><symbol overflow="visible" id="a"><path d="M1.28-9.484H3l4.203 7.937v-7.937h1.25V0H6.72L2.515-7.922V0H1.28zm0 0"/></symbol><symbol overflow="visible" id="b"><path d="M5.125-8.61c-.938 0-1.684.352-2.234 1.047-.542.688-.812 1.633-.812 2.83 0 1.198.27 2.147.813 2.842.55.687 1.297 1.03 2.235 1.03.926 0 1.66-.343 2.203-1.03.55-.696.828-1.645.828-2.844 0-1.196-.277-2.14-.828-2.829-.543-.695-1.277-1.046-2.203-1.046zm0-1.046c1.32 0 2.38.45 3.172 1.344.8.898 1.203 2.09 1.203 3.578 0 1.5-.402 2.7-1.203 3.593C7.504-.255 6.445.186 5.125.186c-1.336 0-2.402-.44-3.203-1.328C1.13-2.036.734-3.235.734-4.735c0-1.49.395-2.68 1.188-3.579.8-.894 1.867-1.343 3.203-1.343zm0 0"/></symbol><symbol overflow="visible" id="c"><path d="M1.28-9.484h5.44v1.093H2.562v2.78h3.75v1.08h-3.75V0H1.28zm0 0"/></symbol></defs><g><path fill="#fff" d="M0 0h300v300H0z"/><path d="M212.988 255.96l-22.925-23.198M216.152 248.246l-18.34-18.56M244.543 247.703l-31.555 8.258M190.063 232.762l8.625-31.453M198.688 201.31l31.554-8.255M203.785 207.906l25.246-6.6M230.242 193.055l22.926 23.195M230.242 193.055l8.63-31.457M253.168 216.25l-8.625 31.453M244.906 217.367l-6.902 25.164M238.87 161.598L227.407 150" stroke-width="1.2" stroke="#000" stroke-miterlimit="10" fill="none"/><path d="M227.406 150l-11.465-11.598M215.94 138.402l4.318-15.726" stroke-width="1.2" stroke="#00f" stroke-miterlimit="10" fill="none"/><path d="M220.258 122.676l4.312-15.73M184.39 146.656l15.778-4.13" stroke-width="1.2" stroke="#000" stroke-miterlimit="10" fill="none"/><path d="M200.168 142.527l15.773-4.125" stroke-width="1.2" stroke="#00f" stroke-miterlimit="10" fill="none"/><path d="M210.94 130.402h10v16h-10zm0 0" fill="#fff"/><use xlink:href="#a" x="210.941" y="142.778" fill="#00f"/><path d="M224.57 106.945l15.778-4.125" stroke-width="1.2" stroke="#000" stroke-miterlimit="10" fill="none"/><path d="M240.348 102.82l15.777-4.13" stroke-width="1.2" stroke="#00f" stroke-miterlimit="10" fill="none"/><path d="M225.78 98.695l12.622-3.3" stroke-width="1.2" stroke="#000" stroke-miterlimit="10" fill="none"/><path d="M238.402 95.395l12.62-3.3" stroke-width="1.2" stroke="#00f" stroke-miterlimit="10" fill="none"/><path d="M201.645 83.75l22.925 23.195" stroke-width="1.2" stroke="#000" stroke-miterlimit="10" fill="none"/><path d="M256.125 98.69l4.313-15.725" stroke-width="1.2" stroke="#00f" stroke-miterlimit="10" fill="none"/><path d="M260.438 82.965l4.312-15.727" stroke-width="1.2" stroke="#000" stroke-miterlimit="10" fill="none"/><path d="M251.125 90.69h10v16h-10zm0 0" fill="#fff"/><use xlink:href="#a" x="251.125" y="103.067" fill="#00f"/><path d="M264.75 67.238l-11.465-11.6" stroke-width="1.2" stroke="#000" stroke-miterlimit="10" fill="none"/><path d="M253.285 55.637l-11.46-11.598" stroke-width="1.2" stroke="#00f" stroke-miterlimit="10" fill="none"/><path d="M257 70.313l-9.172-9.282" stroke-width="1.2" stroke="#000" stroke-miterlimit="10" fill="none"/><path d="M247.828 61.03l-9.172-9.276M241.824 44.04l-15.777 4.128" stroke-width="1.2" stroke="#00f" stroke-miterlimit="10" fill="none"/><path d="M226.047 48.168l-15.777 4.13" stroke-width="1.2" stroke="#000" stroke-miterlimit="10" fill="none"/><path d="M236.824 36.04h10v16h-10zm0 0" fill="#fff"/><use xlink:href="#a" x="236.824" y="48.415" fill="#00f"/><path d="M210.27 52.297l-8.625 31.453M216.81 57.47l-6.904 25.163M201.645 83.75l-15.778 4.125" stroke-width="1.2" stroke="#000" stroke-miterlimit="10" fill="none"/><path d="M185.867 87.875l-15.777 4.13M170.09 92.004l-4.313 15.726" stroke-width="1.2" stroke="#00f" stroke-miterlimit="10" fill="none"/><path d="M165.777 107.73l-4.312 15.727" stroke-width="1.2" stroke="#000" stroke-miterlimit="10" fill="none"/><path d="M176.63 97.18l-3.454 12.582" stroke-width="1.2" stroke="#00f" stroke-miterlimit="10" fill="none"/><path d="M173.176 109.762l-3.45 12.582" stroke-width="1.2" stroke="#000" stroke-miterlimit="10" fill="none"/><path d="M165.09 84.004h10v16h-10zm0 0" fill="#fff"/><use xlink:href="#a" x="165.09" y="96.38" fill="#00f"/><path d="M161.465 123.457l22.926 23.2M161.465 123.457l-31.555 8.258M180.688 145.64l-4.313 15.727" stroke-width="1.2" stroke="#000" stroke-miterlimit="10" fill="none"/><path d="M176.375 161.367l-4.313 15.727" stroke-width="1.2" stroke="#f00" stroke-miterlimit="10" fill="none"/><path d="M188.09 147.672l-4.313 15.726" stroke-width="1.2" stroke="#000" stroke-miterlimit="10" fill="none"/><path d="M183.777 163.398l-4.312 15.727" stroke-width="1.2" stroke="#f00" stroke-miterlimit="10" fill="none"/><path d="M170.762 170.11h11v16h-11zm0 0" fill="#fff"/><use xlink:href="#b" x="170.762" y="182.485" fill="#f00"/><path d="M129.91 131.715l-22.926-23.2M122.16 134.79l-18.344-18.56M121.28 163.168l8.63-31.453M106.984 108.516l-31.554 8.257M75.43 116.773l-8.625 31.454M81.97 121.95l-6.904 25.16M66.805 148.227l22.925 23.2M66.805 148.227l-15.778 4.128" stroke-width="1.2" stroke="#000" stroke-miterlimit="10" fill="none"/><path d="M51.027 152.355L35.25 156.48" stroke-width="1.2" stroke="#3cc" stroke-miterlimit="10" fill="none"/><path d="M89.73 171.426l31.55-8.258M90.94 163.176l25.244-6.606" stroke-width="1.2" stroke="#000" stroke-miterlimit="10" fill="none"/><path d="M27.25 148.48h8v16h-8zm0 0" fill="#fff"/><use xlink:href="#c" x="27.25" y="160.856" fill="#3cc"/></g></svg>
